X:257
T:
R:polska
S:Efter skomakaren Pucksson, Klintehamn.
O:Gotland, Klintehamn
M:3/4
L:1/16
K:D
A2d2 d2f2 gfef|A2d2 d2f2 gfef|e2ed e2f2 g2b2|b2a2 a2g2 g2f2|
A2d2 d2f2 gfef|A2d2 d2f2 gfef|e2ed e2f2 g2b2|bac2 e4 d4::
a2a^g a2d'2f2a2|g2gf g2b2 e2g2|f2fe f2a2 d2f2|gfed edcB A4|
a2a^g a2d'2f2a2|g2gf g2b2e2g2|f2fe f2a2 d2f2|fedc e4 d4:|

